X:56
T:Lei courdelo
O:France
A:Provence
C:Trad.
R:Danse trad.
S:Carnet du tambourinaire Ginas (1924)
Z:Transcrit et/ou corrig par Michel BELLON - 2005-03-06
Z:Pour toute observation mailto:galouvielle@free.fr
M:2/4
L:1/8
K:Bb
de | fdfd | B/A/B/c/ BB | cdec | d/c/d/e/ dd/e/ | fdfd | B/A/B/c/ BB | cdec | d2 :| cB |
ABcd | ec Ac/B/ | ABcd | ec Ac | ffff | g2 g/a/b/g/ | fd f/e/d/c/ |B2 |]
%%footer $D   Galouvielle-MBe 2008 \nDanse trad. (France)
